!!!COM: Palestrina, Giovanni Perluigi da
!!!OPR: Missa De Beata Marie Virginis (I)
!!!OMD: Gloria
!!!OTL: Domine Deus Rex
**kern	**kern	**kern	**kern
*Itenor	*Itenor	*Icalto	*Icant
!Tenor 2	!Tenor 1	!Altus	!Cantus
*clefGv2	*clefGv2	*clefG2	*clefG2
*k[]	*k[]	*k[]	*k[]
*G:mix	*G:mix	*G:mix	*G:mix
*M4/2	*M4/2	*M4/2	*M4/2
=32	=32	=32	=32
0r	0r	1.g	0r
.	.	2f	.
=33	=33	=33	=33
0r	0r	4e	1r
.	.	4f	.
.	.	4g	.
.	.	4e	.
.	.	2f	[1dd
.	.	2g	.
=34	=34	=34	=34
1r	0r	1a	2dd]
.	.	.	2cc
2r	.	1g	1b
[2g	.	.	.
=35	=35	=35	=35
2g]	0r	2r	1a
2f	.	1cc	.
4e	.	.	1g
4f	.	.	.
4g	.	2b	.
4e	.	.	.
=36	=36	=36	=36
2f	2r	2a	1cc
2e	1g	2g	.
1d	.	1a	1dd
.	2f	.	.
=37	=37	=37	=37
1c	4e	2.cc	0r
.	4f	.	.
.	4g	.	.
.	4e	4b	.
[1d	2f	2a	.
.	2g	[2g	.
=38	=38	=38	=38
1d]	1a	2g]	1r
.	.	2f#	.
4G	2g	1g	1dd
4A	.	.	.
4B	2G	.	.
4c	.	.	.
=39	=39	=39	=39
2d	2B	1g	1.gg
1e	2c	.	.
.	1A	[1cc	.
2c	.	.	2ff
=40	=40	=40	=40
1g	1G	2cc]	2ee
.	.	2b	2dd
1c	1r	2a	2cc
.	.	2g	2ee
=41	=41	=41	=41
0r	1d	2.f	2ff
.	.	.	2.dd
.	.	8e	.
.	.	8d	.
.	[1g	1e	.
.	.	.	8cc#
.	.	.	8b
.	.	.	2cc#
=42	=42	=42	=42
1d	2g]	1a	2dd
.	2f	.	2a
[1g	1e	2r	2b
.	.	2g	2cc
=43	=43	=43	=43
2g]	1d	2b	2.dd
2f	.	2.a	.
.	.	.	8cc
.	.	.	8b
2e	2c#	.	[1a
.	.	4g	.
[2d	2d	[2g	.
=44	=44	=44	=44
2d]	1A	2g]	1a]
2c#	.	2f#	.
[1d	[1G	1g	1b
=45	=45	=45	=45
1d]	1G]	2r	1g
.	.	2g	.
2r	1r	2d	1a
2d	.	2f	.
=46	=46	=46	=46
2A	2r	4c	1cc
.	.	4d	.
2c	1g	4e	.
.	.	4f#	.
4G	.	1g	1b
4A	.	.	.
4B	2d	.	.
4c	.	.	.
=47	=47	=47	=47
2d	2f	0r	1a
4A	4c	.	.
4B	4d	.	.
4c	4e	.	1g
4d	4f#	.	.
2e	2g	.	.
=48	=48	=48	=48
2f	2a	2r	1cc
2e	1g	2g	.
1d	.	2a	1dd
.	2f#	2b	.
=49	=49	=49	=49
4c	1g	1cc	1ee
4d	.	.	.
4e	.	.	.
4f	.	.	.
2g	2r	2b	1dd
[2f	2d	[2a	.
=50	=50	=50	=50
2f]	2A	2a]	1cc
2e	2c	2.g	.
[1d	4G	.	1b
.	4A	4f	.
.	4B	4d	.
.	4c	4e	.
=51	=51	=51	=51
1d]	2d	4f	1a
.	.	4g	.
.	2f	2a	.
1r	2g	4e	[1b
.	.	4f#	.
.	2e	4g	.
.	.	4e	.
=52	=52	=52	=52
1r	1d	2f#	2b]
.	.	1g	4a
.	.	.	4g
1d	2r	.	2a
.	[2d	2f#	2a
=53	=53	=53	=53
2B	2d]	1g	[0g
2.c	1e	.	.
.	.	1e	.
4d	.	.	.
[2e	[2c	.	.
=54	=54	=54	=54
2e]	2c]	2c	1g_
2.d	2B	2d	.
.	2.c	[1e	1g_
4c	.	.	.
[2c	.	.	.
.	8B	.	.
.	8A	.	.
=55	=55	=55	=55
2c]	[0G	2e]	0g]
4B	.	4d	.
4A	.	4c	.
1B	.	1d	.
=56	=56	=56	=56
[0B	1G_	[0d	[0g
.	1G_	.	.
=57	=57	=57	=57
0B]	0G]	0d]	0g]
*-	*-	*-	*-
!!!CDT: 1525/^1526/-1594/2/2
!!!OCY: Italia
!!!AGN: Mass (Paraphrase)
!!!AST: renaissance, vocal
!!!ASW: Gregorian Mass
!!!PWK: Masses, Book Mantuan I
!!!RNB: Cadence finals: D
!!!YOR: Le Opere Complete, v. 18, p. 83
!!!YOO: Rome, Italy: Fratelli Scalera
!!!END: 1992//
!!!EED: John Miller
!!!YEC: Copyright 2000, John Miller
!!!YEN: United States of America
!!!YEM: Rights to all derivative electronic formats reserved.
!!!YEM: Refer to licensing agreement for further details.
!!!YEM: This file must be accompanied by the licensing agreement.
!!!YEM: A copy of the licensing agreement may be found at http://www.music-cog.ohio-state.edu/HumdrumDatabases/Palestrina/license.txt
!!!EMD: converted to Humdrum by Bret Aarden
